X: 1
T: B'fhearr leum a bha mi 'n uiridh (from Alasdair White)
R: reel
M: 4/4
L: 1/8
K: Amaj
AEAB ceef|eA~A2 ~f2 ec|~A3 B ce~e2|fB~B2 c2 Bc|
AEAB ceef|eA~A2 ~d2 c2|~A3 B ce~e2|fB~B2 c2 BA||
c2 d ec~c2|ac~c2 ec~c2|~A3 B ce~e2|fB~B2 c2 BA|c2 d ec~c2|ac~c2 ec~c2|AEAB ce~e2|fB~B2 c2 Bc||

